X:1
T:Glakey Hornpipe
M:6/8
L:1/8
S:Susan B <susanbell:tesco.net> tradtunes 2010-4-8
K:G
|: B2c | ded ^c2d | B2d  GAB |  cdc B2c  | A2c A2G |
         FAd  fed | FAd  fed |1 ded cdc  | B3 :|2 ded cBA | G3 ||
|: GDC | B,DG BGD | B,DG BGD | E^DE A^GA | cAc e2d |
         d^cd fed | FAd  fed |1 ded cdc  | B3 :|2 ded cBA | G3 |]

